X:1
T:Ah, Holy Jesus, How Have You Offended
T:Text: Johann Heermann, 1630; tr. Robert Bridges, 1899, alt. Tune: Johann Crüger, 1640
T:11 11 11 5 HERZLIEBSTER JESU www.hymnary.org/text/ah_holy_jesus_how_hast_thou_offended
T:Ah, Holy Jesus, How Have You Offended
T:This hymn is in the public domain. You may freely use this score for personal and congregational worship. If you reproduce the score, please credit Hymnary.org as the source. 
T:This hymn is in the public domain. You may freely use this score for personal and congregational worship. If you reproduce the score, please credit Hymnary.org as the source. 
Z:This hymn is in the public domain. You may freely use this score for personal and congregational worship. If you reproduce the score, please credit Hymnary.org as the source.
%%score ( 1 2 ) ( 3 4 )
L:1/8
M:4/4
K:Ab
V:1 treble nm="SOPRANO ALTO" snm="S. A."
V:2 treble 
V:3 bass nm="TENOR BASS" snm="T. B."
V:4 bass 
V:1
"^1""^2""^3""^4" F4 F2 F2 | E4 C4 | F2 G2 A2 A2 | B4 G4 | G4 A2 B2 | c4 A4 | d2 d2 c2 c2 | B4 A4 | %8
w: Ah, ho- ly|Je- sus,|how have you of-|fen- ded,|that mor- tal|judg- ment|has on you de-|scend- ed?|
w: Who was the|guilt- y?|Who brought this up-|on you?|It is my|trea- son,|Lord, that has un-|done you.|
w: For me, dear|Je- sus,|was your in- car-|na- tion,|your mor- tal|sor- row,|and your life's ob-|la- tion;|
w: There- fore, dear|Je- sus,|since I can- not|pay you,|I do a-|dore you|and will ev- er|pray you,|
 A4 G2 F2 |1 E4 C4 | E2 E2 F2 E2 | D4 C4 | c4 B2 A2 | G4 F4 |] %14
w: By foes de-|rid- ed,|by your own re-|ject- ed,|O most af-|flict- ed!|
w: 'Twas I, Lord|Je- sus,|I it was de-|nied you;|I cru- ci-|fied you.|
w: your death of|an- guish|and your bit- ter|pas- sion,|for my sal-|va- tion.|
w: think on your|pit- y|and your love un-|swerv- ing,|not my de-|serv- ing.|
V:2
 C4 D2 D2 | B,4 C4 | C2 C2 F2 E2 | D4 C4 | C4 C2 E2 | E4 F4 | F2 F2 E2 E2 | E4 C4 | F4 E2 D2 |1 %9
 C4 A,4 | C2 B,2 C2 C2 | B,4 A,4 | C4 E2 C2 | (C3 B,) A,4 |] %14
V:3
 A,4 A,2 B,2 | G,4 E,4 | A,2 G,2 F,2 A,2 | F,4 =E,4 | =E,4 F,2 G,2 | A,4 F,4 | B,2 F,G, A,2 A,2 | %7
 (A,2 G,2) A,4 | C4 C2 A,2 |1 A,4 E,4 | E,2 G,2 A,2 A,2 | F,4 F,4 | (E,2 A,2) F,2 F,2 | %13
 (F,2 =E,2) F,4 |] %14
V:4
 F,4 D,2 B,,2 | E,4 A,,4 | F,2 E,2 D,2 C,2 | B,,4 C,4 | C,4 F,2 _E,2 | A,,4 D,4 | %6
 B,,2 B,,2 C,3 D, | E,4 A,,4 | F,,4 C,2 D,2 |1 A,,4 A,,4 | A,,2 G,,2 F,,2 A,,2 | B,,4 F,,4 | %12
 A,,4 B,,2 F,,2 | C,4 F,,4 |] %14

